public/customer/3.svg

<svg width="250" height="98" viewBox="0 0 250 98" fill="none" xmlns="http://www.w3.org/2000/svg">
<path d="M27.3737 55.967L41.2541 49.7848L49.2434 54.4213L50.8574 69.6322L41.012 69.5512L42.4646 58.9767L40.7699 58.0001L32.4578 64.5078L27.3737 55.967Z" fill="white" fill-opacity="0.6"/>
<path d="M50.1316 53.77L62.3983 62.7993L67.2402 54.0954L57.3944 50.1097V48.1574L67.2402 44.0903L62.3983 35.468L50.1316 44.497V53.77Z" fill="white" fill-opacity="0.6"/>
<path d="M49.2434 43.7652L50.8574 28.5542L41.012 28.7169L42.4646 39.2914L40.7699 40.2675L32.3771 33.7601L27.3737 42.2197L41.2541 48.4017L49.2434 43.7652Z" fill="white" fill-opacity="0.6"/>
<path d="M100.086 47.2703V61.5211H105.385V43.3598H97.6685V47.2703H100.086Z" fill="white" fill-opacity="0.6"/>
<path d="M99.9207 40.808C100.406 41.3161 101.146 41.5702 102.139 41.5702C103.133 41.5702 103.862 41.3161 104.325 40.808C104.811 40.2776 105.054 39.6148 105.054 38.8196C105.054 38.002 104.811 37.3392 104.325 36.8312C103.862 36.3009 103.133 36.0357 102.139 36.0357C101.146 36.0357 100.406 36.3009 99.9207 36.8312C99.4573 37.3392 99.2254 38.002 99.2254 38.8196C99.2254 39.6148 99.4573 40.2776 99.9207 40.808Z" fill="white" fill-opacity="0.6"/>
<path d="M81.64 61.1231C83.1411 61.8079 84.9847 62.1506 87.1701 62.1506C89.2237 62.1506 90.9896 61.8304 92.4694 61.1893C93.9486 60.5489 95.0853 59.6538 95.8802 58.5053C96.6975 57.3339 97.1056 55.9752 97.1056 54.4287C97.1056 52.9264 96.7199 51.656 95.9469 50.6174C95.1958 49.557 94.1477 48.7285 92.8003 48.1322C91.4535 47.5134 89.8971 47.1267 88.1307 46.9722L86.2762 46.8065C85.1723 46.7179 84.3775 46.4199 83.8917 45.9116C83.4059 45.4035 83.163 44.8069 83.163 44.1222C83.163 43.5917 83.2959 43.1058 83.5602 42.6639C83.8255 42.1998 84.2226 41.8354 84.7527 41.5702C85.3047 41.3051 85.9781 41.1726 86.773 41.1726C87.6116 41.1726 88.3074 41.327 88.8594 41.6366C88.9808 41.702 89.0963 41.7719 89.2046 41.8461L89.2308 41.8644C89.2713 41.8925 89.3113 41.9215 89.3501 41.9509C89.6854 42.2074 89.9524 42.5113 90.151 42.8627C90.4376 43.3489 90.582 43.89 90.582 44.4866H95.8802C95.8802 42.8958 95.5159 41.5149 94.7877 40.344C94.0591 39.151 93.0104 38.2341 91.6417 37.5932C90.2943 36.9304 88.6718 36.599 86.773 36.599C84.9622 36.599 83.395 36.9085 82.07 37.527C80.7456 38.1237 79.7079 38.9853 78.9573 40.1119C78.2281 41.2388 77.8638 42.5756 77.8638 44.1222C77.8638 46.2651 78.582 47.9884 80.0169 49.2921C81.4518 50.5956 83.3731 51.3467 85.7795 51.5455L87.6012 51.7112C89.0799 51.8438 90.151 52.1422 90.8134 52.6059C91.4754 53.0478 91.8069 53.6554 91.8069 54.4287C91.8069 54.7841 91.7489 55.1174 91.6324 55.4288C91.5459 55.6599 91.4278 55.8788 91.2773 56.0858C90.9234 56.55 90.4048 56.914 89.7204 57.1795C89.0361 57.4444 88.186 57.5769 87.1701 57.5769C86.0443 57.5769 85.128 57.4226 84.4218 57.1133C83.715 56.7815 83.1854 56.3507 82.8315 55.8208C82.5005 55.2903 82.3353 54.7161 82.3353 54.0973H77.0695C77.0695 55.6659 77.4557 57.058 78.2281 58.2732C79.0011 59.4661 80.1384 60.4164 81.64 61.1231Z" fill="white" fill-opacity="0.6"/>
<path d="M117.208 61.7526C115.375 61.7526 113.896 61.532 112.77 61.0897C111.644 60.626 110.816 59.864 110.286 58.8037C109.778 57.7209 109.525 56.2626 109.525 54.4287V47.2372H106.776V43.3598H109.525V38.4551H114.459V43.3598H119.758V47.2372H114.459V54.6277C114.459 55.4893 114.68 56.152 115.121 56.6157C115.585 57.058 116.236 57.2786 117.075 57.2786H119.758V61.7526H117.208Z" fill="white" fill-opacity="0.6"/>
<path fill-rule="evenodd" clip-rule="evenodd" d="M126.138 61.3552C127.33 61.8857 128.699 62.1506 130.245 62.1506C131.767 62.1506 133.115 61.8857 134.285 61.3552C135.455 60.8248 136.427 60.0847 137.199 59.1349C137.972 58.1846 138.491 57.1023 138.755 55.8871H133.887C133.667 56.4394 133.247 56.9031 132.629 57.2786C132.011 57.6547 131.216 57.8424 130.245 57.8424C129.643 57.8424 129.105 57.7713 128.631 57.6284C128.271 57.52 127.947 57.3706 127.661 57.1795C126.999 56.7378 126.513 56.1186 126.204 55.3237C126.118 55.0971 126.045 54.8602 125.983 54.6133C125.92 54.3633 125.869 54.1031 125.831 53.8323H139.087V52.0427C139.087 50.3856 138.734 48.8612 138.027 47.4694C137.321 46.0551 136.294 44.9174 134.947 44.0557C133.623 43.172 131.989 42.7301 130.045 42.7301C128.566 42.7301 127.241 42.9953 126.071 43.5256C124.924 44.0336 123.963 44.7295 123.19 45.6132C122.418 46.497 121.822 47.5024 121.402 48.6293C121.004 49.7337 120.806 50.8936 120.806 52.1088V52.7717C120.806 53.9428 121.004 55.0915 121.402 56.2183C121.822 57.3229 122.418 58.328 123.19 59.234C123.985 60.1181 124.967 60.8248 126.138 61.3552ZM125.922 50.5553C125.937 50.4852 125.952 50.416 125.969 50.348C126.015 50.1606 126.068 49.9811 126.129 49.8095C126.162 49.7119 126.199 49.6166 126.237 49.524C126.568 48.7064 127.054 48.0879 127.694 47.6681C127.934 47.5112 128.193 47.3837 128.472 47.2855C128.94 47.1209 129.465 47.0384 130.045 47.0384C130.951 47.0384 131.701 47.2484 132.298 47.6681C132.916 48.0657 133.38 48.6512 133.689 49.4245C133.714 49.4869 133.737 49.5504 133.76 49.6147C133.797 49.7172 133.831 49.8223 133.863 49.9301C133.909 50.0905 133.95 50.2564 133.986 50.4281C134.013 50.5545 134.035 50.6839 134.055 50.8166H125.871C125.887 50.7279 125.904 50.6409 125.922 50.5553Z" fill="white" fill-opacity="0.6"/>
<path d="M141.273 61.5211V43.3598H145.48V47.9339C145.537 47.662 145.602 47.401 145.674 47.1508C145.737 46.9399 145.804 46.7366 145.877 46.5413C146.341 45.304 147.036 44.3762 147.963 43.7574C148.891 43.1167 150.027 42.7965 151.375 42.7965H151.606C152.975 42.7965 154.112 43.1167 155.017 43.7574C155.945 44.3762 156.641 45.304 157.104 46.5413L157.141 46.6347L157.172 46.72C157.193 46.6598 157.214 46.6003 157.236 46.5413C157.722 45.304 158.429 44.3762 159.356 43.7574C160.283 43.1167 161.421 42.7965 162.767 42.7965H162.999C164.368 42.7965 165.516 43.1167 166.443 43.7574C167.393 44.3762 168.11 45.304 168.596 46.5413C169.081 47.7786 169.325 49.3252 169.325 51.181V61.5211H164.026V50.8827C164.026 49.8884 163.761 49.0821 163.231 48.4636C162.723 47.8448 161.995 47.5355 161.045 47.5355C160.096 47.5355 159.345 47.856 158.793 48.4966C158.241 49.1152 157.965 49.9437 157.965 50.9822V61.5211H152.633V50.8827C152.633 49.8884 152.368 49.0821 151.838 48.4636C151.33 47.8448 150.613 47.5355 149.686 47.5355C148.714 47.5355 147.952 47.856 147.4 48.4966C146.848 49.1152 146.572 49.9437 146.572 50.9822V61.5211H141.273Z" fill="white" fill-opacity="0.6"/>
<path fill-rule="evenodd" clip-rule="evenodd" d="M183.479 58.0214V61.5211H187.685V50.3856C187.685 48.7064 187.354 47.3367 186.691 46.276C186.029 45.1935 185.058 44.3871 183.777 43.8569C182.519 43.3267 180.962 43.0615 179.108 43.0615C178.706 43.0615 178.286 43.0658 177.848 43.0746C177.59 43.0799 177.325 43.0866 177.054 43.0946C176.325 43.1167 175.619 43.1498 174.935 43.1941L174.412 43.2293C174.143 43.248 173.891 43.2664 173.654 43.2851C173.475 43.299 173.306 43.3129 173.147 43.3267V47.8008C173.831 47.7565 174.592 47.7122 175.432 47.6681C175.666 47.6559 175.899 47.6444 176.13 47.6337C176.463 47.6182 176.792 47.6049 177.118 47.5932C177.375 47.5838 177.63 47.5756 177.882 47.5686C178.677 47.5464 179.317 47.5355 179.803 47.5355C180.775 47.5355 181.481 47.7674 181.923 48.2314C182.364 48.6955 182.585 49.3913 182.585 50.3194V50.3856H179.306C177.695 50.3856 176.271 50.5956 175.034 51.0153C173.798 51.4129 172.837 52.0426 172.153 52.9042C171.468 53.744 171.126 54.8265 171.126 56.152C171.126 57.3673 171.402 58.4167 171.954 59.3007C172.506 60.1624 173.268 60.8248 174.239 61.289C175.233 61.7526 176.381 61.9847 177.683 61.9847C178.942 61.9847 180.002 61.7526 180.863 61.289C181.746 60.8248 182.431 60.1624 182.916 59.3007C183.002 59.1551 183.082 59.0046 183.156 58.848C183.261 58.6269 183.354 58.3942 183.437 58.1501L183.479 58.0214ZM182.585 54.7934V53.3352H179.273C178.346 53.3352 177.629 53.5671 177.121 54.0311C176.635 54.473 176.392 55.0805 176.392 55.8537C176.392 56.2177 176.452 56.5489 176.573 56.8467C176.695 57.1456 176.877 57.4111 177.121 57.6437C177.629 58.0855 178.346 58.3061 179.273 58.3061C179.45 58.3061 179.62 58.2973 179.785 58.2804C179.92 58.2661 180.05 58.2459 180.177 58.2201C180.42 58.1709 180.649 58.1003 180.863 58.0077C181.349 57.7871 181.746 57.4226 182.055 56.914C182.364 56.406 182.541 55.6993 182.585 54.7934Z" fill="white" fill-opacity="0.6"/>
<path d="M190.856 61.5211V43.3598H195.062V49.3543C195.264 47.6431 195.772 46.2632 196.586 45.2156C197.69 43.8238 199.279 43.128 201.355 43.128H202.05V47.7013H200.725C199.269 47.7013 198.142 48.0988 197.347 48.8942C196.553 49.6675 196.155 50.7944 196.155 52.2745V61.5211H190.856Z" fill="white" fill-opacity="0.6"/>
<path d="M208.77 53.0369H210.525L216.254 61.5211H222.216L214.951 51.1015L220.924 43.3598H215.36L208.77 51.9951V37.3283H203.471V61.5211H208.77V53.0369Z" fill="white" fill-opacity="0.6"/>
</svg>

<svg xmlns="http://www.w3.org/2000/svg" width="250" height="98" fill="none"><path fill="#fff" fill-opacity=".6" d="m27.374 55.967 13.88-6.182 7.99 4.636 1.613 15.211-9.845-.08 1.453-10.575L40.77 58l-8.312 6.508-5.084-8.541ZM50.132 53.77l12.266 9.03 4.842-8.705-9.846-3.985v-1.953l9.846-4.067-4.842-8.622-12.266 9.029v9.273ZM49.243 43.765l1.614-15.21-9.845.162 1.453 10.574-1.695.977-8.393-6.508-5.003 8.46 13.88 6.182 7.99-4.637ZM100.086 47.27v14.251h5.299V43.36h-7.717v3.91h2.418ZM99.92 40.808c.486.508 1.226.762 2.219.762.994 0 1.723-.254 2.186-.762.486-.53.729-1.193.729-1.988 0-.818-.243-1.48-.729-1.989-.463-.53-1.192-.795-2.186-.795-.993 0-1.733.265-2.218.795-.464.508-.696 1.171-.696 1.989 0 .795.232 1.458.696 1.988ZM81.64 61.123c1.501.685 3.345 1.028 5.53 1.028 2.054 0 3.82-.32 5.3-.962 1.479-.64 2.615-1.535 3.41-2.684.818-1.171 1.226-2.53 1.226-4.076 0-1.503-.386-2.773-1.16-3.812-.75-1.06-1.798-1.889-3.146-2.485-1.346-.619-2.903-1.005-4.67-1.16l-1.854-.166c-1.104-.088-1.898-.386-2.384-.894a2.506 2.506 0 0 1-.729-1.79c0-.53.133-1.016.397-1.458.266-.464.663-.829 1.193-1.094.552-.265 1.225-.397 2.02-.397.839 0 1.534.154 2.086.464.122.065.237.135.346.21l.026.017.12.087a3 3 0 0 1 .8.912c.287.486.431 1.027.431 1.624h5.298c0-1.591-.364-2.972-1.092-4.143-.729-1.193-1.778-2.11-3.146-2.75-1.348-.664-2.97-.995-4.869-.995-1.81 0-3.378.31-4.703.928-1.324.597-2.362 1.458-3.113 2.585-.729 1.127-1.093 2.464-1.093 4.01 0 2.143.718 3.866 2.153 5.17 1.435 1.304 3.356 2.055 5.763 2.253l1.821.166c1.479.133 2.55.431 3.212.895.662.442.994 1.05.994 1.823a2.756 2.756 0 0 1-.53 1.657c-.354.464-.872.828-1.557 1.093-.684.265-1.534.398-2.55.398-1.126 0-2.042-.154-2.748-.464-.707-.331-1.237-.762-1.59-1.292a3.195 3.195 0 0 1-.497-1.724H77.07c0 1.569.386 2.961 1.158 4.176.773 1.193 1.91 2.143 3.412 2.85ZM117.208 61.753c-1.833 0-3.312-.221-4.438-.663-1.126-.464-1.954-1.226-2.484-2.286-.508-1.083-.761-2.541-.761-4.375v-7.192h-2.749V43.36h2.749v-4.905h4.934v4.905h5.299v3.877h-5.299v7.39c0 .862.221 1.525.662 1.989.464.442 1.115.663 1.954.663h2.683v4.474h-2.55Z"/><path fill="#fff" fill-opacity=".6" fill-rule="evenodd" d="M126.138 61.355c1.192.53 2.561.796 4.107.796 1.522 0 2.87-.265 4.04-.796 1.17-.53 2.142-1.27 2.914-2.22a7.646 7.646 0 0 0 1.556-3.248h-4.868c-.22.552-.64 1.016-1.258 1.392-.618.376-1.413.563-2.384.563-.602 0-1.14-.07-1.614-.214a3.606 3.606 0 0 1-.97-.449c-.662-.441-1.148-1.06-1.457-1.855a6.378 6.378 0 0 1-.221-.71 7.405 7.405 0 0 1-.152-.782h13.256v-1.79c0-1.656-.353-3.18-1.06-4.573a8.487 8.487 0 0 0-3.08-3.413c-1.324-.884-2.958-1.326-4.902-1.326-1.479 0-2.804.265-3.974.796-1.147.508-2.108 1.203-2.881 2.087a9.682 9.682 0 0 0-1.788 3.016 10.184 10.184 0 0 0-.596 3.48v.663c0 1.17.198 2.32.596 3.446a10.215 10.215 0 0 0 1.788 3.016c.795.884 1.777 1.59 2.948 2.121Zm-.216-10.8a6.237 6.237 0 0 1 .207-.745 4.82 4.82 0 0 1 .108-.286c.331-.818.817-1.436 1.457-1.856.24-.157.499-.284.778-.383a4.722 4.722 0 0 1 1.573-.247c.906 0 1.656.21 2.253.63.618.398 1.082.983 1.391 1.757a5.736 5.736 0 0 1 .297 1.004c.027.125.049.255.069.388h-8.184a9.24 9.24 0 0 1 .051-.262Z" clip-rule="evenodd"/><path fill="#fff" fill-opacity=".6" d="M141.273 61.521V43.36h4.207v4.574a9.543 9.543 0 0 1 .397-1.393c.464-1.237 1.159-2.165 2.086-2.784.928-.64 2.064-.96 3.412-.96h.231c1.369 0 2.506.32 3.411.96.928.62 1.624 1.547 2.087 2.784l.037.094.031.085.064-.179c.486-1.237 1.193-2.165 2.12-2.784.927-.64 2.065-.96 3.411-.96h.232c1.369 0 2.517.32 3.444.96.95.62 1.667 1.547 2.153 2.784.485 1.238.729 2.784.729 4.64v10.34h-5.299V50.883c0-.995-.265-1.8-.795-2.42-.508-.618-1.236-.928-2.186-.928-.949 0-1.7.321-2.252.962-.552.618-.828 1.447-.828 2.485v10.54h-5.332v-10.64c0-.994-.265-1.8-.795-2.418-.508-.62-1.225-.928-2.152-.928-.972 0-1.734.32-2.286.96-.552.62-.828 1.448-.828 2.486v10.54h-5.299Z"/><path fill="#fff" fill-opacity=".6" fill-rule="evenodd" d="M183.479 58.021v3.5h4.206V50.386c0-1.68-.331-3.05-.994-4.11-.662-1.083-1.633-1.889-2.914-2.42-1.258-.53-2.815-.794-4.669-.794a62.79 62.79 0 0 0-2.054.033c-.729.022-1.435.055-2.119.1l-.523.034a81.883 81.883 0 0 0-1.265.098V47.8a188.419 188.419 0 0 1 2.983-.167 92.852 92.852 0 0 1 3.673-.099c.972 0 1.678.232 2.12.696.441.465.662 1.16.662 2.088v.067h-3.279c-1.611 0-3.035.21-4.272.63-1.236.397-2.197 1.027-2.881 1.888-.685.84-1.027 1.922-1.027 3.248 0 1.215.276 2.265.828 3.149.552.861 1.314 1.524 2.285 1.988.994.464 2.142.696 3.444.696 1.259 0 2.319-.232 3.18-.696a4.946 4.946 0 0 0 2.053-1.988c.086-.146.166-.296.24-.453a6.51 6.51 0 0 0 .281-.698l.042-.129Zm-.894-3.228v-1.458h-3.312c-.927 0-1.644.232-2.152.696-.486.442-.729 1.05-.729 1.823 0 .364.06.695.181.993.122.299.304.564.548.797.508.442 1.225.662 2.152.662.177 0 .347-.009.512-.026.135-.014.265-.034.392-.06.243-.05.472-.12.686-.212.486-.22.883-.585 1.192-1.094.309-.508.486-1.215.53-2.12Z" clip-rule="evenodd"/><path fill="#fff" fill-opacity=".6" d="M190.856 61.521V43.36h4.206v5.994c.202-1.71.71-3.09 1.524-4.138 1.104-1.392 2.693-2.088 4.769-2.088h.695v4.573h-1.325c-1.456 0-2.583.398-3.378 1.193-.794.773-1.192 1.9-1.192 3.38v9.247h-5.299ZM208.77 53.037h1.755l5.729 8.484h5.962l-7.265-10.42 5.973-7.741h-5.564l-6.59 8.635V37.328h-5.299v24.193h5.299v-8.484Z"/></svg>
